!!!!SEGMENT: pl-wtm--r-1226--010_lodwigowski-edward-stefan--biezy-strumien-po-dolinie.krn
!!!cenid: 18xx:1926
!!!COM: Łodwigowski, Edward Stefan
!!!COM-rismID: pe30111147
!!!CDT: 1815/08/14-1895/11/12
!!!CNT: Polish
!!!OTL: Bieży strumień po dolinie
!!!PDT:
!!!AGN:
!!!SMS-siglum: PL-Wtm
!!!SMS-shelfmark: R 1226
!!!SMS-shelfwork: 010 W
!!!SMS-variant:
!!!SMS-altvar:
!!!NIFC-rismSourceID: 1001083991
!!!NIFC-islandoraID:
!!!URL-pdf-islandora:
!!!URL-scan:
!!!ONB-nifc: UWAGA: No. 58
!!!OMD: Moderato
!!!AIN: 1 forte
!!!key:
**kern	**fing	**kern	**fing
*part1	*part1	*part1	*part1
*staff2	*staff2	*staff1	*staff1
*Iforte	*	*Iforte	*
*I"Fortepian	*	*I"Fortepian	*
*clefF4	*	*clefG2	*
*k[f#c#g#]	*	*k[f#c#g#]	*
*A:	*	*A:	*
*M3/4	*	*M3/4	*
*all\right	*	*all\right	*
=1	=1	=1	=1
*^	*	*	*
*2\right	*2\right	*below	*	*
!	!	!	!LO:TX:i:t=Bieży strumień po dolinie. P.L.P.	!
!	!LO:N:vis=2	!	!LO:TX:Bi:t=No 58.	!
2.A/	4A\	4	(8a\L	1
.	.	.	8cc#\J)	3
.	4e 4c#\	.	(4.ee\	5
.	4e 4c#\	.	.	.
.	.	.	8dd#X\)	.
=2	=2	=2	=2	=2
!	!LO:N:vis=2	!	!	!
2.A/	4A\	.	(8ee\L	.
.	.	.	8dd#X\	.
.	4e 4c#\	.	8ee\	.
.	.	.	8cc#\J	.
.	4e 4c#\	.	4a/)	.
=3	=3	=3	=3	=3
!	!LO:N:vis=2	!	!	!
2.E/	4E\	.	(<8g#/L	2
.	.	.	8b/J	3
.	4d 4B 4G#\	.	(4.dd\)	5
.	4d 4B 4G#\	.	.	.
.	.	.	8cc#\)	.
=4	=4	=4	=4	=4
!	!LO:N:vis=2	!	!	!
2.E/	4E\	.	(8dd\L	.
.	.	.	8cc#\	.
.	4d 4B 4G#\	.	8dd\	.
.	.	.	8b\J	.
.	4d 4B\	.	4g#/)	.
!!LO:LB:g=original
=5	=5	=5	=5	=5
!	!LO:N:vis=2	!	!	!
2.A/	4A\	.	(8a\L	1
.	.	.	8cc#\J)	.
.	4e 4c#\	.	(4.ee\	.
.	4e 4c#\	.	.	.
.	.	.	8dd#X\)	.
=6	=6	=6	=6	=6
!	!LO:N:vis=2	!	!	!
2.A/	4A\	.	(8ee\L	.
.	.	.	8dd#X\	.
.	4e 4c#\	.	8ee\	.
.	.	.	8cc#\J	.
.	4e 4c#\	.	4a/)	.
=7	=7	=7	=7	=7
!	!LO:N:vis=2	!	!	!
2.E/	4E\	.	(8g#/L	2
.	.	.	8b/J)	3
.	4d 4B 4G#\	.	(4.dd\	.
.	4d 4B 4G#\	.	.	.
.	.	.	8cc#\)	.
=8	=8	=8	=8	=8
!	!LO:N:vis=2	!	!	!
2.E/	4E\	.	(8dd\L	.
.	.	.	8cc#\	.
.	4d 4B 4G#\	.	8dd\	.
.	.	.	8b\J	.
.	4d 4B\	.	4g#/)	.
*v	*v	*	*	*
=9||	=9||	=9||	=9||
*M2/4	*	*M2/4	*
*^	*	*	*
!	!LO:N:vis=2	!	!LO:TX:a:i:t=trochę prędzèj	!
2E/	8E\L	5	(8b\L	3
.	8d 8B 8G#\	.	8dd\)	5
.	8d 8B 8G#\	.	8dd'\	4
.	8dJ 8B 8G#\	.	8dd'\J	.
=10	=10	=10	=10	=10
!	!LO:N:vis=2	!	!	!
2A/	8A\L	4	(8cc#\L	.
.	8e 8c#\	.	8ee\)	.
.	8e 8c#\	.	8ee'\	.
.	8eJ 8c#\	.	8ee'\J	.
!!LO:LB:g=original
=11	=11	=11	=11	=11
!	!LO:N:vis=2	!	!	!
2E/	8E\L	.	(8b\L	.
.	8d 8B 8G#\	.	8dd\)	.
.	8d 8B 8G#\	.	8dd'\	.
.	8dJ 8B 8G#\	.	8dd'\J	.
=12	=12	=12	=12	=12
!	!LO:N:vis=2	!	!	!
2A/	8A\L	.	4cc#\	.
.	8e 8c#\	.	.	.
.	8e 8c#\	.	4a\	.
.	8eJ 8c#\	.	.	.
=13	=13	=13	=13	=13
!	!LO:N:vis=2	!	!	!
2E/	8E\L	.	(8b\L	.
.	8d 8B 8G#\	.	8dd\)	.
.	8d 8B 8G#\	.	8dd'\	.
.	8dJ 8B 8G#\	.	8dd'\J	.
=14	=14	=14	=14	=14
!	!LO:N:vis=2	!	!	!
2A/	8A\L	.	(8cc#\L	.
.	8e 8c#\	.	8ee\J)	.
.	8e 8c#\	.	4ee^\	3
.	8eJ 8c#\	.	.	.
=15	=15	=15	=15	=15
4D/	8D\L	.	8.ff#\L	4
.	8BJ 8F#\	.	.	.
.	.	.	16dd\Jk	.
4E/	8E\L	.	8b/L	1
.	8dJ 8B\	.	8g#/J	2
*v	*v	*	*	*
=16	=16	=16	=16
*	*^	*	*
8c#L 8A\	2	4	4a/	.
8e 8c#\	.	.	.	.
8c#J 8A\	.	.	8a/	.
8r	.	.	8r	.
*	*v	*v	*	*
==	==	==	==
*-	*-	*-	*-
!!!system-decoration: {p1}
!!!RDF**kern: > = above
!!!RDF**kern: < = below
!!!ENC: Andrzej Kubiczek
!!!END: 2021-05-01
!!!ENC: Andrzej Gręziak
!!!END: 2021-04-17
